X:2623
T:Captain Kelly
R:reel
D:Matt Molloy & Sean Keane: Contentment is Wealth
Z:id:hn-reel-676
M:C|
K:G
GBAF G2ge|dBAc BGEF|GBAF G2ge|dBAc BGGF|
~G2 (3Bcd ~g3e|dBAc BGEF|GBAF G2ge|dBAc BG~G2||
dgbg agbg|egdg egd2|dgbg agbg|egfa ~g3e|
dgbg agbg|egdg egd2|gGfG eGdG|egfa gedB||
"variations"
GBAF G2ge|dBAc BGEF|GBAF G2ge|dBAc BAGF|
~G2 (3Bcd ~g3e|dBBA BGEF|GBAF G2ge|dBAc BG~G2||
dgbg agbg|(3ege dg egde|~g3b agbg|egfa ~g3e|
dgbg agbg|egdg egd2|~g3d edBd|egfa gedB||


